!!!OTL: Soldatenliedlein
!!!ARE: Europa, Mitteleuropa, Deutschland
!!!SCT: A0425
!!!YEM: Copyright 1995, estate of Helmut Schaffrath.
**kern
*ICvox
*Ivox
*M6/4
*k[]
*C:
{4c
=1
2e
4f
2g
4g
=2
2a
4g
2g
4a
=3
[2.g
2g]}
{4g
=4
2a
4g
2g
4e
=5
2g
4e
2d
8g
8f
=6
[2.e
4e]
4d
4c
=7
[2.d
2d]}
==
!!!AGN: Romanze, Ballade, Lied, Kriegslied
!! Einzeldruck von 1631.
!!!ONB: ESAC (Essen Associative Code) Database: ALTDEU
!!!AMT: compound duple
!!!AIN: vox
!!!EED: Helmut Schaffrath
!!!EEV: 1.0
*-
